{"type":"map","version":"1.10","tiledversion":"1.10.2","orientation":"isometric","renderorder":"right-down","infinite":false,"width":40,"height":40,"tilewidth":64,"tileheight":32,"compressionlevel":-1,"nextlayerid":6,"nextobjectid":35,"properties":[{"name":"meters_per_tile","type":"float","value":5.0},{"name":"alt_max","type":"float","value":60}],"tilesets":[{"firstgid":1,"name":"tiles","tilewidth":64,"tileheight":32,"tilecount":6,"columns":6,"image":"tiles.png","imagewidth":384,"imageheight":32,"margin":0,"spacing":0},{"firstgid":7,"name":"trees","tilewidth":32,"tileheight":48,"tilecount":1,"columns":1,"image":"trees.png","imagewidth":32,"imageheight":48,"margin":0,"spacing":0}],"layers":[{"id":1,"type":"tilelayer","name":"ground","visible":true,"opacity":1,"x":0,"y":0,"width":40,"height":40,"data":[1,1,1,1,1,1,1,2,1,1,2,1,2,1,1,1,1,2,1,5,5,2,1,1,2,1,1,1,2,1,2,2,2,2,1,2,1,2,2,1,1,1,2,1,1,1,1,1,1,1,1,2,1,2,2,2,1,1,2,5,5,2,2,1,2,1,2,1,1,1,2,2,1,2,1,1,1,2,2,1,1,1,2,1,2,2,1,2,1,1,1,1,1,1,1,1,1,2,1,5,5,2,2,1,1,1,1,1,1,1,2,1,1,2,1,1,2,1,1,1,1,1,1,1,1,1,1,1,1,1,2,2,1,1,1,2,1,1,1,5,5,1,1,1,1,1,1,1,2,1,1,2,1,1,2,1,1,1,1,1,1,1,2,1,2,1,1,1,2,1,1,1,1,1,2,2,1,1,2,5,5,1,2,1,1,1,2,1,1,1,1,1,2,1,1,2,2,2,1,2,2,1,2,2,1,1,1,1,1,1,1,1,2,1,2,1,2,2,2,5,5,1,1,2,1,1,1,1,1,2,1,1,1,2,1,2,1,1,1,2,1,2,2,2,2,1,1,2,1,1,1,1,1,1,6,5,6,6,6,5,5,6,6,5,6,6,2,1,1,1,1,1,2,2,1,1,1,1,1,1,1,1,1,1,1,1,2,1,1,1,1,1,2,1,5,5,5,5,5,5,5,5,5,5,5,5,2,1,1,1,1,2,1,1,1,1,1,1,1,1,1,2,2,1,2,2,1,1,1,2,1,2,2,1,6,5,6,6,6,5,5,6,6,5,6,6,2,1,1,1,1,1,2,1,1,1,2,1,1,2,1,2,1,2,2,1,2,1,2,1,2,1,2,2,6,5,6,6,6,5,5,6,6,5,6,6,1,1,1,2,1,1,1,1,2,1,1,1,1,1,1,1,2,1,2,1,1,2,1,1,1,1,2,1,6,5,6,6,6,5,5,6,6,5,6,6,1,2,2,1,1,2,1,1,1,1,1,1,1,2,1,2,1,2,1,1,1,1,1,1,1,1,1,2,5,5,5,5,5,5,5,5,5,5,5,5,1,2,1,1,1,2,2,1,1,2,2,1,2,2,1,1,1,2,1,2,2,1,1,1,1,2,2,2,6,5,6,6,6,5,5,6,6,5,6,6,1,2,1,1,2,1,1,2,1,1,1,1,1,1,1,1,1,1,2,1,1,1,1,1,1,2,2,1,6,5,6,6,6,5,5,6,6,5,6,6,2,1,2,2,1,1,1,2,1,2,2,1,1,1,1,1,2,1,1,1,1,1,1,2,1,1,2,1,6,5,6,6,6,5,5,6,6,5,6,6,1,2,1,1,1,1,1,1,1,2,2,1,2,1,1,1,2,1,1,1,2,1,1,1,1,2,1,2,5,5,5,5,5,5,5,5,5,5,5,5,1,1,1,1,2,2,1,1,1,2,2,2,1,1,1,1,1,1,1,1,2,1,2,2,2,1,1,1,6,5,6,6,6,5,5,6,6,5,6,6,1,2,1,1,2,1,1,2,1,2,1,1,1,1,1,1,1,1,1,1,1,2,2,1,2,1,1,1,6,5,6,6,6,5,5,6,6,5,6,6,1,1,1,2,1,2,1,1,2,1,2,2,2,1,2,2,2,1,2,1,1,1,1,1,1,1,1,1,1,1,1,1,2,5,5,1,1,2,2,1,1,1,1,1,1,1,2,1,1,1,1,1,1,1,5,5,5,5,5,5,5,5,5,5,5,5,5,5,5,5,5,5,5,5,5,5,5,5,5,5,5,5,5,5,5,5,5,5,5,5,5,5,5,5,5,5,5,5,5,5,5,5,5,5,5,5,5,5,5,5,5,5,5,5,5,5,5,5,5,5,5,5,5,5,5,5,5,5,5,5,5,5,5,5,1,1,1,1,1,1,1,1,2,1,1,1,1,2,1,1,1,1,1,5,5,1,1,1,2,1,2,1,2,1,1,1,2,1,1,1,1,2,1,1,1,1,1,1,1,1,2,1,2,1,2,2,2,1,1,1,2,1,1,5,5,2,1,1,1,1,2,1,2,2,2,1,2,1,1,1,2,1,1,1,2,1,2,1,1,1,2,1,1,2,1,1,1,2,1,2,2,1,2,5,5,2,1,1,1,1,2,1,1,1,1,1,1,1,1,1,1,1,1,2,1,1,1,2,1,2,4,4,4,4,4,4,1,1,1,1,2,1,1,5,5,2,1,2,1,1,1,2,1,1,2,2,1,1,1,1,2,1,2,1,1,1,2,1,4,4,4,4,3,3,4,4,4,4,1,1,1,1,2,5,5,1,1,1,1,1,2,1,1,1,1,1,2,2,2,2,1,2,1,1,2,2,2,4,4,4,3,3,3,3,3,3,4,4,4,1,2,1,2,5,5,2,1,2,1,1,2,1,1,1,1,2,1,1,1,2,2,1,1,1,1,1,1,4,4,3,3,3,3,3,3,3,3,4,4,2,2,2,2,5,5,2,1,1,1,1,1,1,1,2,1,1,2,2,1,1,2,1,1,1,1,1,4,4,3,3,3,3,3,3,3,3,3,3,4,4,1,1,2,5,5,1,2,2,2,1,1,1,1,1,1,1,1,1,1,2,1,1,1,1,1,1,4,4,3,3,3,3,3,3,3,3,3,3,4,4,2,2,1,5,5,1,2,2,1,2,1,1,1,1,1,2,2,1,1,2,2,1,1,1,1,1,4,3,3,3,3,3,3,3,3,3,3,3,3,4,1,2,1,5,5,1,1,1,2,1,2,1,1,1,1,2,2,2,1,1,1,1,1,1,2,2,4,3,3,3,3,3,3,3,3,3,3,3,3,4,1,1,1,5,5,1,2,2,1,1,2,1,1,2,1,1,2,2,1,1,1,1,1,2,1,1,4,4,3,3,3,3,3,3,3,3,3,3,4,4,1,1,1,5,5,2,2,1,2,1,1,2,1,1,1,1,1,1,1,2,1,2,1,2,1,1,4,4,3,3,3,3,3,3,3,3,3,3,4,4,1,1,2,5,5,1,1,2,2,1,2,1,1,1,1,2,1,1,1,1,1,2,1,1,2,2,2,4,4,3,3,3,3,3,3,3,3,4,4,1,1,2,1,5,5,2,1,1,1,2,2,1,1,1,1,1,2,1,1,2,2,1,2,2,1,1,1,4,4,4,3,3,3,3,3,3,4,4,4,1,2,1,2,5,5,1,1,2,2,2,1,1,2,1,1,1,1,1,1,1,1,1,1,1,2,2,2,2,4,4,4,4,3,3,4,4,4,4,1,2,1,1,1,5,5,2,1,1,1,2,1,1,1,2,2,1,1,1,1,1,2,2,1,2,1,2,1,1,1,2,4,4,4,4,4,4,1,2,2,1,1,1,1,5,5,1,1,2,1,1,1,1,1,1,1,1,1,1,1,2,1,2,2,2,2,1,1,1,2,1,1,2,1,1,2,1,1,1,1,1,2,1,1,5,5,1,1,1,1,1,1,1,2,1,1,1,2,2,1,1,1,1,2,2,1,1,1,2,1,1,1,1,1,2,1,1,1,1,1,2,1,1,2,5,5,1,1,1,1,2,1,1,1,1,2,2,2,2,1,1,1,1,1,2]},{"id":2,"type":"objectgroup","name":"regions","visible":true,"opacity":1,"x":0,"y":0,"draworder":"topdown","objects":[{"id":1,"name":"harbor","class":"district","x":64.0,"y":768.0,"width":0,"height":0,"rotation":0,"visible":true,"polygon":[{"x":0.0,"y":0.0},{"x":448.0,"y":0.0},{"x":448.0,"y":448.0},{"x":0.0,"y":448.0}],"properties":[{"name":"label","type":"string","value":"Harbor"}]},{"id":2,"name":"downtown","class":"district","x":448.0,"y":192.0,"width":0,"height":0,"rotation":0,"visible":true,"polygon":[{"x":0.0,"y":0.0},{"x":384.0,"y":0.0},{"x":384.0,"y":384.0},{"x":0.0,"y":384.0}],"properties":[{"name":"label","type":"string","value":"Downtown"},{"name":"speed_limit","type":"int","value":5}]},{"id":3,"name":"tower","class":"no_fly","x":947.2,"y":243.2,"width":0,"height":0,"rotation":0,"visible":true,"polygon":[{"x":0.0,"y":0.0},{"x":153.5999999999999,"y":0.0},{"x":153.5999999999999,"y":153.60000000000002},{"x":0.0,"y":153.60000000000002}],"properties":[{"name":"label","type":"string","value":"Radio tower"},{"name":"no_spawn","type":"bool","value":true}]}]},{"id":3,"type":"objectgroup","name":"pads","visible":true,"opacity":1,"x":0,"y":0,"draworder":"topdown","objects":[{"id":4,"name":"pad0","class":"pad","point":true,"x":1216.0,"y":972.5537550532244,"width":0,"height":0,"rotation":0,"visible":true,"properties":[{"name":"slot","type":"int","value":0}]},{"id":5,"name":"pad1","class":"pad","point":true,"x":1216.0,"y":939.298379547902,"width":0,"height":0,"rotation":0,"visible":true,"properties":[{"name":"slot","type":"int","value":1}]},{"id":6,"name":"pad2","class":"pad","point":true,"x":1216.0,"y":906.0430040425796,"width":0,"height":0,"rotation":0,"visible":true,"properties":[{"name":"slot","type":"int","value":2}]},{"id":7,"name":"pad3","class":"pad","point":true,"x":1216.0,"y":872.7876285372571,"width":0,"height":0,"rotation":0,"visible":true,"properties":[{"name":"slot","type":"int","value":3}]},{"id":8,"name":"pad4","class":"pad","point":true,"x":1216.0,"y":839.5322530319347,"width":0,"height":0,"rotation":0,"visible":true,"properties":[{"name":"slot","type":"int","value":4}]},{"id":9,"name":"pad5","class":"pad","point":true,"x":1216.0,"y":806.2768775266122,"width":0,"height":0,"rotation":0,"visible":true,"properties":[{"name":"slot","type":"int","value":5}]},{"id":10,"name":"pad6","class":"pad","point":true,"x":1216.0,"y":773.0215020212897,"width":0,"height":0,"rotation":0,"visible":true,"properties":[{"name":"slot","type":"int","value":6}]},{"id":11,"name":"pad7","class":"pad","point":true,"x":1216.0,"y":739.7661265159674,"width":0,"height":0,"rotation":0,"visible":true,"properties":[{"name":"slot","type":"int","value":7}]},{"id":12,"name":"pad8","class":"pad","point":true,"x":1216.0,"y":706.5107510106449,"width":0,"height":0,"rotation":0,"visible":true,"properties":[{"name":"slot","type":"int","value":8}]},{"id":13,"name":"pad9","class":"pad","point":true,"x":1216.0,"y":673.2553755053225,"width":0,"height":0,"rotation":0,"visible":true,"properties":[{"name":"slot","type":"int","value":9}]},{"id":14,"name":"pad10","class":"pad","point":true,"x":1216.0,"y":640.0,"width":0,"height":0,"rotation":0,"visible":true,"properties":[{"name":"slot","type":"int","value":10}]},{"id":15,"name":"pad11","class":"pad","point":true,"x":1216.0,"y":606.7446244946775,"width":0,"height":0,"rotation":0,"visible":true,"properties":[{"name":"slot","type":"int","value":11}]},{"id":16,"name":"pad12","class":"pad","point":true,"x":1216.0,"y":573.4892489893551,"width":0,"height":0,"rotation":0,"visible":true,"properties":[{"name":"slot","type":"int","value":12}]},{"id":17,"name":"pad13","class":"pad","point":true,"x":1216.0,"y":540.2338734840326,"width":0,"height":0,"rotation":0,"visible":true,"properties":[{"name":"slot","type":"int","value":13}]},{"id":18,"name":"pad14","class":"pad","point":true,"x":1216.0,"y":506.9784979787102,"width":0,"height":0,"rotation":0,"visible":true,"properties":[{"name":"slot","type":"int","value":14}]},{"id":19,"name":"pad15","class":"pad","point":true,"x":1216.0,"y":473.7231224733878,"width":0,"height":0,"rotation":0,"visible":true,"properties":[{"name":"slot","type":"int","value":15}]},{"id":20,"name":"pad16","class":"pad","point":true,"x":1216.0,"y":440.46774696806534,"width":0,"height":0,"rotation":0,"visible":true,"properties":[{"name":"slot","type":"int","value":16}]},{"id":21,"name":"pad17","class":"pad","point":true,"x":1216.0,"y":407.2123714627429,"width":0,"height":0,"rotation":0,"visible":true,"properties":[{"name":"slot","type":"int","value":17}]},{"id":22,"name":"pad18","class":"pad","point":true,"x":1216.0,"y":373.9569959574204,"width":0,"height":0,"rotation":0,"visible":true,"properties":[{"name":"slot","type":"int","value":18}]},{"id":23,"name":"pad19","class":"pad","point":true,"x":1216.0,"y":340.701620452098,"width":0,"height":0,"rotation":0,"visible":true,"properties":[{"name":"slot","type":"int","value":19}]}]},{"id":4,"type":"objectgroup","name":"points","visible":true,"opacity":1,"x":0,"y":0,"draworder":"topdown","objects":[{"id":24,"name":"dropoff","class":"","point":true,"x":640.0,"y":640.0,"width":0,"height":0,"rotation":0,"visible":true,"properties":[]}]},{"id":5,"type":"objectgroup","name":"props","visible":true,"opacity":1,"x":0,"y":0,"draworder":"topdown","objects":[{"id":25,"name":"","class":"","gid":7,"x":448.0,"y":832.0,"width":32,"height":48,"rotation":0,"visible":true},{"id":26,"name":"","class":"","gid":7,"x":550.4,"y":1177.6,"width":32,"height":48,"rotation":0,"visible":true},{"id":27,"name":"","class":"","gid":7,"x":89.6,"y":729.6,"width":32,"height":48,"rotation":0,"visible":true},{"id":28,"name":"","class":"","gid":7,"x":896.0,"y":1024.0,"width":32,"height":48,"rotation":0,"visible":true},{"id":29,"name":"","class":"","gid":7,"x":1024.0,"y":832.0,"width":32,"height":48,"rotation":0,"visible":true},{"id":30,"name":"","class":"","gid":7,"x":1152.0,"y":512.0,"width":32,"height":48,"rotation":0,"visible":true},{"id":31,"name":"","class":"","gid":7,"x":256.0,"y":256.0,"width":32,"height":48,"rotation":0,"visible":true},{"id":32,"name":"","class":"","gid":7,"x":160.0,"y":448.0,"width":32,"height":48,"rotation":0,"visible":true},{"id":33,"name":"","class":"","gid":7,"x":768.0,"y":96.0,"width":32,"height":48,"rotation":0,"visible":true},{"id":34,"name":"","class":"","gid":7,"x":384.0,"y":76.8,"width":32,"height":48,"rotation":0,"visible":true}]}]}
